src/icons/solid/symbols/eye-hidden.svg

<svg width="24" height="24" viewBox="0 0 24 24" fill="none" xmlns="http://www.w3.org/2000/svg">
<path d="M20.8379 3.21875C21.1288 2.92726 21.6104 2.92734 21.9014 3.21875C22.1923 3.51028 22.1923 3.99265 21.9014 4.28418L18.6016 7.5918C20.0761 8.54678 21.3899 9.70325 22.4131 10.8291V10.8184C23.1955 11.6929 23.1955 12.9997 22.4131 13.8643C20.0054 16.5182 16.013 19.2831 11.9902 19.2529H11.8496C10.4854 19.2529 9.13096 18.9217 7.83691 18.3789L4.44629 21.7764C4.29581 21.9272 4.10467 21.9971 3.91406 21.9971C3.7236 21.997 3.53318 21.927 3.38281 21.7764C3.09191 21.4849 3.09196 21.0025 3.38281 20.7109L6.40234 17.6846L8.65918 15.4229L15.0898 8.97852L17.2666 6.79785L20.8379 3.21875ZM9.85352 16.3682C10.5154 16.7199 11.2376 16.9306 12.0098 16.9307C13.2336 16.9307 14.3775 16.4582 15.2402 15.5938C16.103 14.7292 16.5752 13.5829 16.5752 12.3564C16.5751 11.5825 16.3638 10.8487 16.0127 10.1953L9.85352 16.3682ZM12 5.4502C13.2941 5.42004 14.5681 5.69187 15.792 6.1543L13.7959 8.1543C13.2341 7.91303 12.622 7.78223 12 7.78223C9.48209 7.78224 7.43571 9.83331 7.43555 12.3564C7.43555 12.9898 7.56587 13.5933 7.80664 14.1562H7.79688L5.06836 16.8906C3.72408 15.9859 2.52992 14.9303 1.58691 13.8848C0.804434 13.0102 0.804457 11.7034 1.58691 10.8389C3.99457 8.19496 7.94711 5.35974 12 5.4502Z" fill="#212121"/>
</svg>

<svg xmlns="http://www.w3.org/2000/svg" width="24" height="24" fill="none" viewBox="0 0 24 24"><path fill="currentColor" d="M20.838 3.219a.756.756 0 0 1 1.063 0 .76.76 0 0 1 0 1.065l-3.3 3.308a19.8 19.8 0 0 1 3.812 3.237v-.01a2.27 2.27 0 0 1 0 3.045c-2.408 2.654-6.4 5.42-10.423 5.389h-.14c-1.365 0-2.719-.331-4.013-.874l-3.39 3.397a.74.74 0 0 1-.533.221c-.19 0-.38-.07-.531-.22a.76.76 0 0 1 0-1.066l3.02-3.026 2.256-2.262 6.43-6.444 2.178-2.181zM9.854 16.369c.661.35 1.384.562 2.156.562a4.53 4.53 0 0 0 3.23-1.337 4.54 4.54 0 0 0 1.335-3.238c0-.774-.211-1.507-.562-2.16zM12 5.45c1.294-.03 2.568.242 3.792.704l-1.996 2A4.6 4.6 0 0 0 12 7.782a4.573 4.573 0 0 0-4.193 6.374h-.01l-2.729 2.735a19.2 19.2 0 0 1-3.481-3.006 2.27 2.27 0 0 1 0-3.046C3.995 8.195 7.947 5.359 12 5.45"/></svg>
